src/test/resources/displayCalibrationData.ti3
CTI3   

DESCRIPTOR "Argyll Calibration Target chart information 3"
ORIGINATOR "Argyll target"
CREATED "Mon Nov 14 16:18:53 2016"
DEVICE_CLASS "DISPLAY"
COLOR_REP "RGB_LAB"

NUMBER_OF_FIELDS 10
BEGIN_DATA_FORMAT
SAMPLE_ID LAB_L LAB_A LAB_B RGB_R RGB_G RGB_B STDEV_R STDEV_G STDEV_B
END_DATA_FORMAT

NUMBER_OF_SETS 24
BEGIN_DATA
A01 37.99   13.56   14.06   25.52129 11.25449 10.30648 1.756712 0.623207 0.908248
A02 65.71   18.13   17.81   60.47479 31.38420 30.12158 1.592166 1.515061 2.026485
A03 49.93   -4.88   -21.93   12.90091 30.65290 37.95769 0.879995 1.906644 1.998470
A04 43.14   -13.10  21.91   18.48777 25.10686 11.39372 1.333880 1.695163 0.535369
A05 55.11   8.84    -25.40   26.33450 30.01302 43.85135 1.721553 1.822734 1.835302
A06 70.72   -33.40  -0.20   17.87428 65.79621 45.54024 1.336652 1.832446 1.890367
B01 62.66   36.07   57.10   69.86895 26.16193 15.27763 1.180651 1.593755 1.109822
B02 40.02   10.41   -45.96   4.512795 23.78141 46.16630 0.545401 1.746215 1.898281
B03 51.12   48.24   16.25   67.57383 10.53992 28.29000 1.187921 1.141659 1.819459
B04 30.33   22.98   -21.59   22.21907 11.35733 24.89025 1.760093 0.917079 1.986196
B05 72.53   -23.71  57.26   56.10061 70.05401 24.83467 1.593993 1.251196 1.518645
B06 71.94   19.36   67.86   75.29098 48.57223 21.56688 1.022826 1.530203 1.103131
C01 28.78   14.18   -50.30   1.961620 18.20564 41.58620 0.591596 1.036462 1.443136
C02 55.26   -38.34  31.37   21.49966 61.21933 27.06484 1.072831 0.947562 1.460715
C03 42.10   53.38   28.19   65.39383 5.258674 21.02884 0.449254 0.582989 1.095496
C04 81.73   4.04    79.82   84.55493 73.71709 28.26901 0.716390 0.387571 0.977704
C05 51.94   49.99   -14.57   65.88335 18.84134 54.28536 0.641264 0.679348 1.059406
C06 51.04   -28.63  -28.64   4.285971 57.18840 56.48477 0.667835 0.904518 1.094023
D01 96.54   -0.43   1.19   100 100 100 0.618325 0.996755 1.121235
D02 81.26   -0.64   -0.34   69.32703 69.34051 69.55364 0.575168 0.662420 0.637610
D03 66.77   -0.73   -0.50   59.15264 60.38015 61.70061 0.469097 0.376233 0.459214
D04 50.87   -0.15   -0.27   44.10999 45.32883 45.82900 0.588819 0.343772 0.431149
D05 35.66   -0.42   -1.23   29.35931 31.37988 31.66238 0.627174 0.507028 0.558655
D06 20.46   -0.08   -0.97   16.31582 17.74082 17.24245 0.548856 0.364838 0.310736
END_DATA
