src/test/resources/sRGBDisplayCalibrationData.ti3
CTI3

DESCRIPTOR "Argyll Calibration Target chart information 3"
ORIGINATOR "Argyll target"
CREATED "Mon Nov 14 16:18:53 2016"
DEVICE_CLASS "DISPLAY"
COLOR_REP "RGB_XYZ"

NUMBER_OF_FIELDS 10
BEGIN_DATA_FORMAT
XYZ_X XYZ_Y XYZ_Z RGB_R RGB_G RGB_B
END_DATA_FORMAT

NUMBER_OF_SETS 125
BEGIN_DATA
0.235129979809 0.214043024914 0.0761564922136 50.0 50.0 50.0
0.244476152081 0.217858320022 0.119259238841 50.0 50.0 62.5
0.256570682967 0.222795550277 0.175036886116 50.0 50.0 75.0
0.27160606467 0.228933294862 0.24437717101 50.0 50.0 87.5
0.289757469479 0.23634306262 0.328087954382 50.0 50.0 100.0
0.304350562226 0.311013667503 0.0805091833076 50.0 62.5 50.0
0.313696734497 0.314828962611 0.123611929935 50.0 62.5 62.5
0.325791265383 0.319766192867 0.17938957721 50.0 62.5 75.0
0.340826647086 0.325903937451 0.248729862104 50.0 62.5 87.5
0.358978051895 0.333313705209 0.332440645476 50.0 62.5 100.0
0.393926320901 0.436499737917 0.0861418375474 50.0 75.0 50.0
0.403272493173 0.440315033025 0.129244584175 50.0 75.0 62.5
0.415367024058 0.44525226328 0.185022231449 50.0 75.0 75.0
0.430402405761 0.451390007865 0.254362516344 50.0 75.0 87.5
0.44855381057 0.458799775623 0.338073299716 50.0 75.0 100.0
0.505282911393 0.592498427319 0.0931441022319 50.0 87.5 50.0
0.514629083664 0.596313722427 0.136246848859 50.0 87.5 62.5
0.52672361455 0.601250952682 0.192024496134 50.0 87.5 75.0
0.541758996253 0.607388697267 0.261364781028 50.0 87.5 87.5
0.559910401062 0.614798465025 0.3450755644 50.0 87.5 100.0
0.63971771272 0.780827225143 0.101597558444 50.0 100.0 50.0
0.649063884992 0.78464252025 0.144700305072 50.0 100.0 62.5
0.661158415878 0.789579750506 0.200477952347 50.0 100.0 75.0
0.676193797581 0.795717495091 0.269818237241 50.0 100.0 87.5
0.69434520239 0.803127262849 0.353529020613 50.0 100.0 100.0
0.304281117387 0.247727325849 0.0765455553133 62.5 50.0 50.0
0.313627289659 0.251542620956 0.119648301941 62.5 50.0 62.5
0.325721820544 0.256479851212 0.175425949215 62.5 50.0 75.0
0.340757202248 0.262617595797 0.24476623411 62.5 50.0 87.5
0.358908607056 0.270027363555 0.328477017482 62.5 50.0 100.0
0.373501699803 0.344697968438 0.0808982464074 62.5 62.5 50.0
0.382847872075 0.348513263546 0.124000993035 62.5 62.5 62.5
0.394942402961 0.353450493801 0.179778640309 62.5 62.5 75.0
0.409977784664 0.359588238386 0.249118925204 62.5 62.5 87.5
0.428129189472 0.366998006144 0.332829708576 62.5 62.5 100.0
0.463077458478 0.470184038852 0.0865309006471 62.5 75.0 50.0
0.47242363075 0.473999333959 0.129633647275 62.5 75.0 62.5
0.484518161636 0.478936564215 0.185411294549 62.5 75.0 75.0
0.499553543339 0.4850743088 0.254751579443 62.5 75.0 87.5
0.517704948148 0.492484076558 0.338462362816 62.5 75.0 100.0
0.57443404897 0.626182728254 0.0935331653316 62.5 87.5 50.0
0.583780221242 0.629998023361 0.136635911959 62.5 87.5 62.5
0.595874752128 0.634935253617 0.192413559234 62.5 87.5 75.0
0.610910133831 0.641072998202 0.261753844128 62.5 87.5 87.5
0.62906153864 0.64848276596 0.3454646275 62.5 87.5 100.0
0.708868850298 0.814511526078 0.101986621544 62.5 100.0 50.0
0.718215022569 0.818326821185 0.145089368172 62.5 100.0 62.5
0.730309553455 0.823264051441 0.200867015446 62.5 100.0 75.0
0.745344935158 0.829401796026 0.270207300341 62.5 100.0 87.5
0.763496339967 0.836811563784 0.353918083713 62.5 100.0 100.0
0.393767010102 0.291316915915 0.0770490272738 75.0 50.0 50.0
0.403113182373 0.295132211023 0.120151773901 75.0 50.0 62.5
0.415207713259 0.300069441278 0.175929421176 75.0 50.0 75.0
0.430243094962 0.306207185863 0.24526970607 75.0 50.0 87.5
0.448394499771 0.313616953621 0.328980489442 75.0 50.0 100.0
0.462987592518 0.388287558505 0.0814017183678 75.0 62.5 50.0
0.47233376479 0.392102853612 0.124504464995 75.0 62.5 62.5
0.484428295675 0.397040083868 0.18028211227 75.0 62.5 75.0
0.499463677378 0.403177828453 0.249622397164 75.0 62.5 87.5
0.517615082187 0.410587596211 0.333333180536 75.0 62.5 100.0
0.552563351193 0.513773628918 0.0870343726076 75.0 75.0 50.0
0.561909523465 0.517588924026 0.130137119235 75.0 75.0 62.5
0.57400405435 0.522526154281 0.18591476651 75.0 75.0 75.0
0.589039436054 0.528663898866 0.255255051404 75.0 75.0 87.5
0.607190840862 0.536073666624 0.338965834776 75.0 75.0 100.0
0.663919941685 0.66977231832 0.0940366372921 75.0 87.5 50.0
0.673266113957 0.673587613428 0.13713938392 75.0 87.5 62.5
0.685360644842 0.678524843683 0.192917031194 75.0 87.5 75.0
0.700396026545 0.684662588268 0.262257316088 75.0 87.5 87.5
0.718547431354 0.692072356026 0.345968099461 75.0 87.5 100.0
0.798354743012 0.858101116144 0.102490093505 75.0 100.0 50.0
0.807700915284 0.861916411252 0.145592840132 75.0 100.0 62.5
0.81979544617 0.866853641507 0.201370487407 75.0 100.0 75.0
0.834830827873 0.872991386092 0.270710772301 75.0 100.0 87.5
0.852982232682 0.88040115385 0.354421555673 75.0 100.0 100.0
0.505011883237 0.345505551351 0.0776749211736 87.5 50.0 50.0
0.514358055509 0.349320846458 0.120777667801 87.5 50.0 62.5
0.526452586395 0.354258076714 0.176555315076 87.5 50.0 75.0
0.541487968098 0.360395821299 0.24589559997 87.5 50.0 87.5
0.559639372907 0.367805589057 0.329606383342 87.5 50.0 100.0
0.574232465653 0.44247619394 0.0820276122676 87.5 62.5 50.0
0.583578637925 0.446291489048 0.125130358895 87.5 62.5 62.5
0.595673168811 0.451228719303 0.18090800617 87.5 62.5 75.0
0.610708550514 0.457366463888 0.250248291064 87.5 62.5 87.5
0.628859955323 0.464776231646 0.333959074436 87.5 62.5 100.0
0.663808224329 0.567962264354 0.0876602665074 87.5 75.0 50.0
0.6731543966 0.571777559462 0.130763013135 87.5 75.0 62.5
0.685248927486 0.576714789717 0.186540660409 87.5 75.0 75.0
0.700284309189 0.582852534302 0.255880945304 87.5 75.0 87.5
0.718435713998 0.59026230206 0.339591728676 87.5 75.0 100.0
0.77516481482 0.723960953756 0.0946625311919 87.5 87.5 50.0
0.784510987092 0.727776248864 0.13776527782 87.5 87.5 62.5
0.796605517978 0.732713479119 0.193542925094 87.5 87.5 75.0
0.811640899681 0.738851223704 0.262883209988 87.5 87.5 87.5
0.82979230449 0.746260991462 0.346593993361 87.5 87.5 100.0
0.909599616148 0.91228975158 0.103115987405 87.5 100.0 50.0
0.91894578842 0.916105046687 0.146218734032 87.5 100.0 62.5
0.931040319305 0.921042276943 0.201996381307 87.5 100.0 75.0
0.946075701009 0.927180021528 0.271336666201 87.5 100.0 87.5
0.964227105817 0.934589789286 0.355047449573 87.5 100.0 100.0
0.63931181423 0.410924566129 0.0784305290968 100.0 50.0 50.0
0.648657986502 0.414739861236 0.121533275724 100.0 50.0 62.5
0.660752517388 0.419677091492 0.177310922999 100.0 50.0 75.0
0.675787899091 0.425814836077 0.246651207893 100.0 50.0 87.5
0.6939393039 0.433224603835 0.330361991265 100.0 50.0 100.0
0.708532396646 0.507895208718 0.0827832201908 100.0 62.5 50.0
0.717878568918 0.511710503826 0.125885966818 100.0 62.5 62.5
0.729973099804 0.516647734081 0.181663614093 100.0 62.5 75.0
0.745008481507 0.522785478666 0.251003898987 100.0 62.5 87.5
0.763159886316 0.530195246424 0.334714682359 100.0 62.5 100.0
0.798108155322 0.633381279132 0.0884158744306 100.0 75.0 50.0
0.807454327593 0.637196574239 0.131518621058 100.0 75.0 62.5
0.819548858479 0.642133804495 0.187296268333 100.0 75.0 75.0
0.834584240182 0.64827154908 0.256636553227 100.0 75.0 87.5
0.852735644991 0.655681316838 0.340347336599 100.0 75.0 100.0
0.909464745813 0.789379968534 0.0954181391151 100.0 87.5 50.0
0.918810918085 0.793195263641 0.138520885743 100.0 87.5 62.5
0.930905448971 0.798132493897 0.194298533017 100.0 87.5 75.0
0.945940830674 0.804270238482 0.263638817911 100.0 87.5 87.5
0.964092235483 0.81168000624 0.347349601284 100.0 87.5 100.0
1.04389954714 0.977708766358 0.103871595328 100.0 100.0 50.0
1.05324571941 0.981524061465 0.146974341955 100.0 100.0 62.5
1.0653402503 0.986461291721 0.20275198923 100.0 100.0 75.0
1.080375632 0.992599036306 0.272092274124 100.0 100.0 87.5
1.09852703681 1.00000880406 0.355803057496 100.0 100.0 100.0
END_DATA
