src/test/resources/testData.ti3
CTI3   

DESCRIPTOR "Argyll Calibration Target chart information 3"
ORIGINATOR "Argyll target"
CREATED "Thu Nov 03 17:55:21 2016"
DEVICE_CLASS "INPUT"
COLOR_REP "XYZ_RGB"

NUMBER_OF_FIELDS 10
BEGIN_DATA_FORMAT
SAMPLE_ID XYZ_X XYZ_Y XYZ_Z RGB_R RGB_G RGB_B STDEV_R STDEV_G STDEV_B 
END_DATA_FORMAT

NUMBER_OF_SETS 24
BEGIN_DATA
A01 11.52185 10.08245 5.088943 17.67336 7.471656 6.815846 1.325713 0.423385 0.616905 
A02 39.17590 34.95036 19.22045 49.92757 22.00649 21.10149 1.775609 1.204019 1.597405 
A03 16.80645 18.36011 25.71085 8.586318 21.64886 27.45111 0.595282 1.519558 1.721634 
A04 10.90691 13.25165 5.290393 12.51162 17.25501 7.539353 0.935380 1.271715 0.358783 
A05 24.18974 23.03658 33.42948 18.13954 20.99745 32.92088 1.302755 1.433994 1.671891 
A06 30.42290 41.78148 34.60426 12.00969 56.03516 34.11587 0.928571 2.174216 1.725173 
B01 40.71693 31.18084 4.991907 60.85758 18.06841 10.17756 1.418613 1.199697 0.809724 
B02 12.32583 11.26303 29.86628 2.967174 16.32093 34.77820 0.378136 1.308691 1.763705 
B03 29.66703 19.37233 10.14950 58.26428 7.027562 19.79569 1.434419 0.791902 1.401477 
B04 8.517104 6.371078 10.77254 15.16394 7.515836 17.09446 1.292480 0.629687 1.499955 
B05 35.35805 44.45263 8.946596 45.19757 61.06314 17.03170 1.768568 1.508980 1.144370 
B06 48.78145 43.56978 6.059474 67.45536 37.27240 14.59011 1.270422 1.528580 0.805994 
C01 6.861362 5.752787 21.37545 1.269150 12.29574 30.58383 0.377033 0.735279 1.313048 
C02 14.98372 23.18267 7.897043 14.51697 50.63404 18.84276 0.767708 1.032196 1.116392 
C03 21.63062 12.56477 3.845859 55.58331 3.504579 14.32583 0.623358 0.410918 0.792413 
C04 59.33541 59.80118 7.191032 79.49130 65.48357 19.63874 0.940267 0.416591 0.741016 
C05 31.08230 20.09105 23.55863 56.10029 12.62762 42.93244 0.769915 0.519676 1.100469 
C06 13.61002 19.30314 30.93476 2.782211 46.23340 45.54722 0.421739 0.982660 1.217468 
D01 87.81319 91.31598 73.94960 67.05695 65.40067 65.32445 0.767356 1.248334 1.394900 
D02 56.57267 58.94254 48.91837 60.31317 60.33843 60.55217 0.744845 0.831305 0.786942 
D03 34.81326 36.32829 30.28349 48.16864 49.79235 51.11237 0.525534 0.391247 0.460026 
D04 18.44209 19.15667 15.91372 33.16664 33.97595 34.45540 0.558620 0.234702 0.411112 
D05 8.468332 8.832614 7.592110 20.42175 22.01544 22.25972 0.479390 0.373924 0.454865 
D06 2.989379 3.105103 2.681828 10.99214 11.87640 11.72124 0.390519 0.268305 0.211168 
END_DATA
